;FLAVOR:Marlin
;TIME:1314
;Filament used: 0.469998m
;Layer height: 0.1
;Generated with Cura_SteamEngine 3.3.1
M190 S60 ; Heat bed to 60C
M104 S200 ; Heat extruder to 200C
M109 S200 ; Wait till target temp is reached.
M82 ;absolute extrusion mode
G28 ;Home XYZ:
G1 Z15.0 F6000 ;Move the platform down 15mm
;Prime the extruder
G92 E0 ; G92 = SET POSITIONING
G1 F200 E3 ; G1 = STRAIGHT LINE
G92 E0
G92 E0
G1 F2400 E-5
;LAYER_COUNT:80
;LAYER:0
M107
M204 S5000
M205 X30 Y30
G0 F3600 X184.463 Y185.318 Z0.2
M204 S500
M205 X20 Y20
;TYPE:SKIRT
G1 F2400 E0 
G1 F1800 X185.963 Y183.876 E0.0692
G1 X186.591 Y183.345 E0.09656
G1 X187.975 Y182.321 E0.15382
G1 X188.643 Y181.889 E0.18028
G1 X190.411 Y180.894 E0.24776
G1 X191.085 Y180.565 E0.2727
G1 X192.489 Y179.979 E0.3233
G1 X193.128 Y179.751 E0.34587
G1 X194.646 Y179.299 E0.39855
G1 X195.374 Y179.128 E0.42342
G1 X197.298 Y178.793 E0.48838
G1 X198.086 Y178.706 E0.51474
G1 X199.857 Y178.62 E0.57372
G1 X200.687 Y178.633 E0.60133
G1 X202.773 Y178.803 E0.67094
G1 X203.492 Y178.903 E0.69508
G1 X204.789 Y179.159 E0.73905
G1 X205.372 Y179.303 E0.75902
G1 X206.803 Y179.728 E0.80867
G1 X207.471 Y179.967 E0.83227
G1 X209.157 Y180.679 E0.89314
G1 X209.879 Y181.039 E0.91998
G1 X211.551 Y182.009 E0.98427
G1 X212.225 Y182.46 E1.01124
G1 X213.709 Y183.594 E1.07336
G1 X214.28 Y184.086 E1.09843
G1 X215.491 Y185.261 E1.15455
G1 X216.018 Y185.839 E1.18057
G1 X217.244 Y187.361 E1.24557
G1 X217.717 Y188.033 E1.2729
G1 X218.707 Y189.649 E1.33593
G1 X219.093 Y190.38 E1.36343
G1 X219.905 Y192.196 E1.42959
G1 X220.217 Y193.056 E1.46002
G1 X220.845 Y195.262 E1.53631
G1 X221.016 Y196.046 E1.563
G1 X221.234 Y197.471 E1.61094
G1 X221.301 Y198.133 E1.63307
G1 X221.383 Y199.846 E1.69011
G1 X221.371 Y200.648 E1.71679
G1 X221.216 Y202.64 E1.78325
G1 X221.124 Y203.329 E1.80637
G1 X220.885 Y204.597 E1.84928
G1 X220.747 Y205.179 E1.86918
G1 X220.332 Y206.624 E1.91918
G1 X220.054 Y207.401 E1.94663
G1 X219.112 Y209.576 E2.02546
G1 X218.742 Y210.3 E2.0525
G1 X218.021 Y211.514 E2.09947
G1 X217.647 Y212.074 E2.12186
G1 X216.606 Y213.469 E2.17976
G1 X216.234 Y213.922 E2.19925
G1 X215.569 Y214.661 E2.23232
G1 X215.185 Y215.053 E2.25057
G1 X214.014 Y216.149 E2.30392
G1 X213.47 Y216.604 E2.3275
G1 X212.076 Y217.645 E2.38537
G1 X211.419 Y218.076 E2.4115
G1 X209.761 Y219.022 E2.47499
G1 X209.112 Y219.345 E2.49911
G1 X207.732 Y219.937 E2.54905
G1 X207.052 Y220.184 E2.57311
G1 X205.256 Y220.724 E2.63549
G1 X204.598 Y220.884 E2.65801
G1 X203.329 Y221.123 E2.70096
G1 X202.612 Y221.217 E2.72501
G1 X200.525 Y221.37 E2.79461
G1 X199.688 Y221.376 E2.82245
G1 X197.835 Y221.269 E2.88419
G1 X197.024 Y221.17 E2.91136
G1 X195.115 Y220.812 E2.97596
G1 X194.373 Y220.627 E3.0014
G1 X192.772 Y220.123 E3.05722
G1 X192.122 Y219.878 E3.08032
G1 X190.721 Y219.263 E3.13121
G1 X190.086 Y218.942 E3.15488
G1 X188.497 Y218.022 E3.21595
G1 X187.822 Y217.571 E3.24295
G1 X186.261 Y216.38 E3.30826
G1 X185.68 Y215.879 E3.33377
G1 X184.502 Y214.733 E3.38843
G1 X183.979 Y214.158 E3.41429
G1 X182.751 Y212.632 E3.47943
G1 X182.28 Y211.964 E3.50662
G1 X181.288 Y210.345 E3.56977
G1 X180.901 Y209.611 E3.59737
G1 X180.093 Y207.802 E3.66327
G1 X179.845 Y207.153 E3.68637
G1 X179.463 Y205.966 E3.72785
G1 X179.293 Y205.329 E3.74978
G1 X178.91 Y203.517 E3.81138
G1 X178.791 Y202.689 E3.8392
G1 X178.628 Y200.593 E3.90912
G1 X178.618 Y199.767 E3.9366
G1 X178.706 Y198.065 E3.99328
G1 X178.786 Y197.331 E4.01784
G1 X179.085 Y195.557 E4.07767
G1 X179.255 Y194.819 E4.10286
G1 X179.748 Y193.139 E4.1611
G1 X180.038 Y192.347 E4.18915
G1 X180.912 Y190.376 E4.26086
G1 X181.302 Y189.633 E4.28877
G1 X182.256 Y188.072 E4.34962
G1 X182.718 Y187.412 E4.37641
G1 X183.899 Y185.935 E4.43931
G1 X184.463 Y185.318 E4.46711
M204 S5000
M205 X30 Y30
G0 F3600 X184.74 Y185.607
M204 S500
M205 X20 Y20
G1 F1800 X186.24 Y184.165 E4.53632
G1 X186.829 Y183.667 E4.56197
G1 X188.213 Y182.643 E4.61924
G1 X188.839 Y182.237 E4.64405
G1 X190.607 Y181.242 E4.71153
G1 X191.239 Y180.934 E4.73491
G1 X192.643 Y180.348 E4.78551
G1 X193.242 Y180.135 E4.80666
G1 X194.76 Y179.683 E4.85934
G1 X195.443 Y179.522 E4.88268
G1 X197.367 Y179.187 E4.94763
G1 X198.105 Y179.105 E4.97233
G1 X199.876 Y179.019 E5.0313
G1 X200.654 Y179.032 E5.05718
G1 X202.74 Y179.202 E5.12679
G1 X203.415 Y179.296 E5.14946
G1 X204.712 Y179.552 E5.19343
G1 X205.258 Y179.686 E5.21213
G1 X206.689 Y180.111 E5.26178
G1 X207.315 Y180.336 E5.28391
G1 X209.001 Y181.048 E5.34478
G1 X209.678 Y181.385 E5.36993
G1 X211.35 Y182.355 E5.43422
G1 X211.982 Y182.778 E5.45952
G1 X213.466 Y183.912 E5.52163
G1 X214.001 Y184.373 E5.54512
G1 X215.212 Y185.548 E5.60125
G1 X215.707 Y186.09 E5.62566
G1 X216.933 Y187.612 E5.69066
G1 X217.376 Y188.242 E5.71628
G1 X218.366 Y189.858 E5.77931
G1 X218.727 Y190.543 E5.80506
G1 X219.539 Y192.359 E5.87123
G1 X219.833 Y193.165 E5.89976
G1 X220.461 Y195.371 E5.97605
G1 X220.621 Y196.107 E6.0011
G1 X220.839 Y197.532 E6.04905
G1 X220.901 Y198.152 E6.06977
G1 X220.983 Y199.865 E6.12681
G1 X220.972 Y200.617 E6.15183
G1 X220.817 Y202.609 E6.21828
G1 X220.731 Y203.255 E6.23996
G1 X220.492 Y204.523 E6.28287
G1 X220.363 Y205.068 E6.3015
G1 X219.948 Y206.513 E6.3515
G1 X219.687 Y207.242 E6.37726
G1 X218.745 Y209.417 E6.45609
G1 X218.398 Y210.096 E6.48145
G1 X217.677 Y211.31 E6.52842
G1 X217.327 Y211.834 E6.54937
G1 X216.286 Y213.229 E6.60727
G1 X215.937 Y213.654 E6.62556
G1 X215.272 Y214.393 E6.65862
G1 X214.912 Y214.761 E6.67575
G1 X213.741 Y215.857 E6.72909
G1 X213.231 Y216.283 E6.75119
G1 X211.837 Y217.324 E6.80906
G1 X211.22 Y217.728 E6.83359
G1 X209.562 Y218.674 E6.89708
G1 X208.954 Y218.977 E6.91967
G1 X207.574 Y219.569 E6.96962
G1 X206.937 Y219.801 E6.99216
G1 X205.141 Y220.341 E7.05454
G1 X204.524 Y220.491 E7.07566
G1 X203.255 Y220.73 E7.11861
G1 X202.583 Y220.818 E7.14115
G1 X200.496 Y220.971 E7.21075
G1 X199.711 Y220.977 E7.23686
G1 X197.858 Y220.87 E7.2986
G1 X197.098 Y220.777 E7.32406
G1 X195.189 Y220.419 E7.38866
G1 X194.493 Y220.245 E7.41252
G1 X192.892 Y219.741 E7.46835
G1 X192.282 Y219.512 E7.49002
G1 X190.881 Y218.897 E7.54091
G1 X190.287 Y218.595 E7.56307
G1 X188.698 Y217.675 E7.62414
G1 X188.065 Y217.253 E7.64945
G1 X186.504 Y216.062 E7.71475
G1 X185.959 Y215.593 E7.73867
G1 X184.781 Y214.447 E7.79333
G1 X184.291 Y213.908 E7.81756
G1 X183.063 Y212.382 E7.8827
G1 X182.621 Y211.755 E7.90822
G1 X181.629 Y210.136 E7.97137
G1 X181.267 Y209.448 E7.99723
G1 X180.459 Y207.639 E8.06313
G1 X180.225 Y207.03 E8.08482
G1 X179.843 Y205.843 E8.1263
G1 X179.685 Y205.246 E8.14684
G1 X179.302 Y203.434 E8.20844
G1 X179.19 Y202.658 E8.23451
G1 X179.027 Y200.562 E8.30444
G1 X179.017 Y199.787 E8.33022
G1 X179.105 Y198.085 E8.3869
G1 X179.18 Y197.398 E8.40989
G1 X179.479 Y195.624 E8.46972
G1 X179.639 Y194.932 E8.49335
G1 X180.132 Y193.252 E8.55158
G1 X180.404 Y192.509 E8.5779
G1 X181.278 Y190.538 E8.64961
G1 X181.643 Y189.841 E8.67578
G1 X182.597 Y188.28 E8.73662
G1 X183.031 Y187.662 E8.76174
G1 X184.212 Y186.185 E8.82464
G1 X184.74 Y185.607 E8.85068
M204 S5000
M205 X30 Y30
G0 F3600 X185.017 Y185.895
M204 S500
M205 X20 Y20
G1 F1800 X186.517 Y184.453 E8.91988
G1 X187.067 Y183.988 E8.94384
G1 X188.451 Y182.964 E9.0011
G1 X189.035 Y182.586 E9.02424
G1 X190.803 Y181.591 E9.09171
G1 X191.393 Y181.303 E9.11355
G1 X192.797 Y180.717 E9.16415
G1 X193.356 Y180.518 E9.18389
G1 X194.874 Y180.066 E9.23657
G1 X195.511 Y179.916 E9.25833
G1 X197.435 Y179.581 E9.32329
G1 X198.124 Y179.505 E9.34634
G1 X199.895 Y179.419 E9.40532
G1 X200.622 Y179.431 E9.4295
G1 X202.708 Y179.601 E9.49911
G1 X203.337 Y179.688 E9.52023
G1 X204.634 Y179.944 E9.5642
G1 X205.144 Y180.07 E9.58167
G1 X206.575 Y180.495 E9.63132
G1 X207.16 Y180.704 E9.65198
G1 X208.846 Y181.416 E9.71286
G1 X209.477 Y181.731 E9.73631
G1 X211.149 Y182.701 E9.8006
G1 X211.739 Y183.095 E9.8242
G1 X213.223 Y184.229 E9.88632
G1 X213.723 Y184.66 E9.90828
G1 X214.934 Y185.835 E9.9644
G1 X215.395 Y186.341 E9.98716
G1 X216.621 Y187.863 E10.05217
G1 X217.035 Y188.451 E10.07609
G1 X218.025 Y190.067 E10.13912
G1 X218.362 Y190.706 E10.16315
G1 X219.174 Y192.522 E10.22931
G1 X219.448 Y193.275 E10.25596
G1 X220.076 Y195.481 E10.33225
G1 X220.226 Y196.167 E10.3556
G1 X220.444 Y197.592 E10.40355
G1 X220.502 Y198.171 E10.4229
G1 X220.584 Y199.884 E10.47994
G1 X220.573 Y200.586 E10.5033
G1 X220.418 Y202.578 E10.56975
G1 X220.338 Y203.181 E10.58998
G1 X220.099 Y204.449 E10.6329
G1 X219.978 Y204.958 E10.6503
G1 X219.563 Y206.403 E10.7003
G1 X219.32 Y207.083 E10.72432
G1 X218.378 Y209.258 E10.80315
G1 X218.054 Y209.892 E10.82684
G1 X217.333 Y211.106 E10.8738
G1 X217.006 Y211.595 E10.89336
G1 X215.965 Y212.99 E10.95126
G1 X215.64 Y213.387 E10.96832
G1 X214.975 Y214.126 E11.00139
G1 X214.639 Y214.469 E11.01736
G1 X213.468 Y215.565 E11.0707
G1 X212.992 Y215.963 E11.09134
G1 X211.598 Y217.004 E11.1492
G1 X211.022 Y217.381 E11.1721
G1 X209.364 Y218.327 E11.23559
G1 X208.797 Y218.609 E11.25665
G1 X207.417 Y219.201 E11.3066
G1 X206.821 Y219.418 E11.32769
G1 X205.025 Y219.958 E11.39007
G1 X204.449 Y220.098 E11.40979
G1 X203.18 Y220.337 E11.45274
G1 X202.553 Y220.419 E11.47377
G1 X200.466 Y220.572 E11.54337
G1 X199.734 Y220.578 E11.56771
G1 X197.881 Y220.471 E11.62945
G1 X197.172 Y220.384 E11.65321
G1 X195.263 Y220.026 E11.71781
G1 X194.613 Y219.864 E11.74009
G1 X193.012 Y219.36 E11.79591
G1 X192.443 Y219.146 E11.81613
G1 X191.042 Y218.531 E11.86702
G1 X190.487 Y218.249 E11.88773
G1 X188.898 Y217.329 E11.9488
G1 X188.307 Y216.935 E11.97242
G1 X186.746 Y215.744 E12.03773
G1 X186.238 Y215.306 E12.06004
G1 X185.06 Y214.16 E12.1147
G1 X184.602 Y213.657 E12.13732
G1 X183.374 Y212.131 E12.20247
G1 X182.962 Y211.546 E12.22627
G1 X181.97 Y209.927 E12.28942
G1 X181.632 Y209.285 E12.31355
G1 X180.824 Y207.476 E12.37945
G1 X180.606 Y206.908 E12.39969
G1 X180.224 Y205.721 E12.44116
G1 X180.076 Y205.163 E12.46036
G1 X179.693 Y203.351 E12.52196
G1 X179.589 Y202.627 E12.54629
G1 X179.426 Y200.531 E12.61621
G1 X179.416 Y199.808 E12.64026
G1 X179.504 Y198.106 E12.69694
G1 X179.575 Y197.464 E12.71843
G1 X179.874 Y195.69 E12.77826
G1 X180.023 Y195.044 E12.80031
G1 X180.516 Y193.364 E12.85855
G1 X180.77 Y192.671 E12.8831
G1 X181.644 Y190.7 E12.95481
G1 X181.985 Y190.05 E12.97922
G1 X182.939 Y188.489 E13.04007
G1 X183.343 Y187.912 E13.0635
G1 X184.524 Y186.435 E13.12639
G1 X185.017 Y185.895 E13.15071
M204 S5000
M205 X30 Y30
G0 F3600 X185.294 Y186.183
M204 S500
M205 X20 Y20
G1 F1800 X186.794 Y184.741 E13.21992
G1 X187.305 Y184.31 E13.24215
G1 X188.689 Y183.286 E13.29941
G1 X189.232 Y182.934 E13.32094
G1 X191 Y181.939 E13.38841
G1 X191.547 Y181.672 E13.40866
G1 X192.951 Y181.086 E13.45926
G1 X193.47 Y180.901 E13.47759
G1 X194.988 Y180.449 E13.53027
G1 X195.58 Y180.31 E13.55049
G1 X197.504 Y179.975 E13.61545
G1 X198.144 Y179.904 E13.63686
G1 X199.915 Y179.818 E13.69584
G1 X200.589 Y179.829 E13.71826
G1 X202.675 Y179.999 E13.78787
G1 X203.26 Y180.08 E13.80751
G1 X204.557 Y180.336 E13.85148
G1 X205.03 Y180.453 E13.86769
G1 X206.461 Y180.878 E13.91734
G1 X207.004 Y181.073 E13.93653
G1 X208.69 Y181.785 E13.9974
G1 X209.276 Y182.077 E14.01918
G1 X210.948 Y183.047 E14.08347
G1 X211.496 Y183.413 E14.10539
G1 X212.98 Y184.547 E14.1675
G1 X213.444 Y184.947 E14.18788
G1 X214.655 Y186.122 E14.244
G1 X215.084 Y186.592 E14.26517
G1 X216.31 Y188.114 E14.33017
G1 X216.694 Y188.66 E14.35237
G1 X217.684 Y190.276 E14.4154
G1 X217.997 Y190.869 E14.43771
G1 X218.809 Y192.685 E14.50387
G1 X219.063 Y193.384 E14.5286
G1 X219.691 Y195.59 E14.60489
G1 X219.83 Y196.228 E14.62661
G1 X220.048 Y197.653 E14.67456
G1 X220.102 Y198.19 E14.69251
G1 X220.184 Y199.903 E14.74955
G1 X220.174 Y200.555 E14.77124
G1 X220.019 Y202.547 E14.83769
G1 X219.945 Y203.107 E14.85648
G1 X219.706 Y204.375 E14.89939
G1 X219.594 Y204.847 E14.91553
G1 X219.179 Y206.292 E14.96553
G1 X218.953 Y206.924 E14.98786
G1 X218.011 Y209.099 E15.06669
G1 X217.71 Y209.687 E15.08866
G1 X216.989 Y210.901 E15.13562
G1 X216.686 Y211.356 E15.1538
G1 X215.645 Y212.751 E15.2117
G1 X215.342 Y213.119 E15.22755
G1 X214.677 Y213.858 E15.26062
G1 X214.365 Y214.177 E15.27546
G1 X213.194 Y215.273 E15.3288
G1 X212.752 Y215.642 E15.34796
G1 X211.358 Y216.683 E15.40582
G1 X210.824 Y217.034 E15.42708
G1 X209.166 Y217.98 E15.49057
G1 X208.639 Y218.242 E15.51014
G1 X207.259 Y218.834 E15.56008
G1 X206.706 Y219.035 E15.57965
G1 X204.91 Y219.575 E15.64203
G1 X204.375 Y219.705 E15.66034
G1 X203.106 Y219.944 E15.70329
G1 X202.524 Y220.02 E15.72281
G1 X200.437 Y220.173 E15.79241
G1 X199.757 Y220.178 E15.81503
G1 X197.904 Y220.071 E15.87677
G1 X197.246 Y219.991 E15.89881
G1 X195.337 Y219.633 E15.96341
G1 X194.734 Y219.482 E15.98409
G1 X193.133 Y218.978 E16.03991
G1 X192.604 Y218.779 E16.05871
G1 X191.203 Y218.164 E16.1096
G1 X190.687 Y217.903 E16.12883
G1 X189.098 Y216.983 E16.1899
G1 X188.55 Y216.617 E16.21182
G1 X186.989 Y215.426 E16.27713
G1 X186.517 Y215.019 E16.29786
G1 X185.339 Y213.873 E16.35252
G1 X184.914 Y213.406 E16.37352
G1 X183.686 Y211.88 E16.43867
G1 X183.303 Y211.337 E16.46077
G1 X182.311 Y209.718 E16.52392
G1 X181.997 Y209.122 E16.54633
G1 X181.189 Y207.313 E16.61222
G1 X180.987 Y206.785 E16.63103
G1 X180.605 Y205.598 E16.6725
G1 X180.467 Y205.08 E16.69033
G1 X180.084 Y203.268 E16.75193
G1 X179.988 Y202.596 E16.77451
G1 X179.825 Y200.5 E16.84443
G1 X179.816 Y199.828 E16.86678
G1 X179.904 Y198.126 E16.92347
G1 X179.969 Y197.531 E16.94337
G1 X180.268 Y195.757 E17.00321
G1 X180.406 Y195.157 E17.02369
G1 X180.899 Y193.477 E17.08192
G1 X181.135 Y192.833 E17.10473
G1 X182.009 Y190.862 E17.17644
G1 X182.326 Y190.258 E17.19913
G1 X183.28 Y188.697 E17.25998
G1 X183.656 Y188.162 E17.28173
G1 X184.837 Y186.685 E17.34463
G1 X185.294 Y186.183 E17.36721
M204 S5000
M205 X30 Y30
G1 F2400 E12.36721
G0 F3600 X188.238 Y189.655
G0 X189.19 Y190.517
G0 X204.815 Y213.464
G0 X204.848 Y213.558
M204 S500
M205 X20 Y20
;TYPE:WALL-INNER
G1 F2400 E17.36721
G1 F1800 X204.415 Y213.705 E17.38242
G1 X203.982 Y213.837 E17.39747
G1 X203.545 Y213.956 E17.41254
G1 X203.111 Y214.059 E17.42737
G1 X202.653 Y214.152 E17.44292
G1 X202.228 Y214.226 E17.45726
G1 X201.782 Y214.289 E17.47224
G1 X201.319 Y214.338 E17.48773
G1 X200.879 Y214.372 E17.50241
G1 X200.306 Y214.395 E17.52148
G1 X199.87 Y214.398 E17.53598
G1 X199.409 Y214.386 E17.55132
G1 X198.962 Y214.361 E17.56621
G1 X198.506 Y214.321 E17.58144
G1 X198.052 Y214.266 E17.59665
G1 X197.626 Y214.201 E17.61098
G1 X197.173 Y214.117 E17.6263
G1 X196.724 Y214.021 E17.64158
G1 X196.279 Y213.909 E17.65684
G1 X195.861 Y213.791 E17.67128
G1 X195.414 Y213.648 E17.68689
G1 X194.995 Y213.5 E17.70167
G1 X194.577 Y213.338 E17.71658
G1 X194.155 Y213.158 E17.73184
G1 X193.749 Y212.97 E17.74672
G1 X193.334 Y212.762 E17.76216
G1 X192.942 Y212.55 E17.77699
G1 X192.547 Y212.319 E17.79221
G1 X192.178 Y212.088 E17.80668
G1 X191.786 Y211.826 E17.82237
G1 X191.43 Y211.57 E17.83695
G1 X191.06 Y211.287 E17.85244
G1 X190.71 Y211.001 E17.86748
G1 X190.384 Y210.716 E17.88188
G1 X190.038 Y210.396 E17.89755
G1 X189.811 Y210.176 E17.90807
G1 X189.497 Y209.851 E17.9231
G1 X189.192 Y209.516 E17.93817
G1 X188.898 Y209.171 E17.95324
G1 X188.616 Y208.819 E17.96825
G1 X188.353 Y208.467 E17.98286
G1 X188.086 Y208.086 E17.99833
G1 X187.836 Y207.707 E18.01343
G1 X187.604 Y207.328 E18.02821
G1 X187.382 Y206.94 E18.04308
G1 X187.169 Y206.535 E18.0583
G1 X186.966 Y206.122 E18.07361
G1 X186.784 Y205.716 E18.08841
G1 X186.606 Y205.291 E18.10373
G1 X186.448 Y204.87 E18.11869
G1 X186.301 Y204.44 E18.1338
G1 X186.173 Y204.02 E18.14841
G1 X186.05 Y203.571 E18.16389
G1 X185.946 Y203.138 E18.1787
G1 X185.854 Y202.69 E18.19391
G1 X185.776 Y202.244 E18.20897
G1 X185.712 Y201.795 E18.22406
G1 X185.664 Y201.347 E18.23904
G1 X185.629 Y200.901 E18.25392
G1 X185.607 Y200.441 E18.26924
G1 X185.6 Y200.007 E18.28368
G1 X185.605 Y199.604 E18.29708
G1 X185.625 Y199.145 E18.31236
G1 X185.659 Y198.699 E18.32724
G1 X185.708 Y198.238 E18.34266
G1 X185.768 Y197.803 E18.35726
G1 X185.845 Y197.356 E18.37235
G1 X185.938 Y196.901 E18.3878
G1 X186.04 Y196.467 E18.40262
G1 X186.157 Y196.035 E18.41751
G1 X186.291 Y195.592 E18.4329
G1 X186.434 Y195.174 E18.4476
